X:1
T:Title
%%score { ( 1 3 ) | 2 }
L:1/8
Q:1/4=117
M:6/4
K:G
V:1 treble nm="Grand Piano"
V:3 treble 
V:2 bass 
V:1
 [DB]2 [DB]2 [DB]2 [Ec]2 [DB]2 [B,G]2 | B4 A2 A6 | [FA]2 [FA]2 [FA]2 [Fd]4 [Dc]2 | [DB]12 | %4
w: Mrs.~H.~S.~Lehman * * * * *||||
 [DB]2 [DB]2 [DB]2 [Ec]2 [DB]2 [B,G]2 | [DB]4 [A,FA]2 [A,FA]6 | %6
w: ||
 [^CGA]2 [CGA]2 [CGA]2 [GB]4 [G^c]2 | [Fd]12 | [Fc]2 [Fc]2 [Fc]2 [Fc]2 [FB]2 [FA]2 | B4 B2 d6 | %10
w: ||||
 B2 B2 A2 A2 G2 B2 | z6 F6 | [B,G]2 [B,G]2 [CA]2 [DB]2 [DB]2 [=Fd]2 | %13
w: |||
[M:7/4] [=Fd]6 [Ec]2 [Ec]4 [Ec]2 |[M:6/4] B2 G2 c2 B4 G2 | A6 [B,G]6 |] %16
w: |||
V:2
 [G,,G,]2 [G,,G,]2 [G,,G,]2 [G,,G,]2 [G,,G,]2 [G,,G,]2 | [D,G,D]4 [D,F,C]2 [D,F,C]6 | %2
 [D,A,]2 [D,A,]2 [D,A,]2 [D,A,]4 [D,F,]2 | [G,,G,]12 | %4
 [G,,G,]2 [G,,G,]2 [G,,G,]2 [G,,G,]2 [G,,G,]2 [G,,G,]2 | [D,F,]4 D,2 D,6 | %6
 A,,2 A,,2 A,,2 [A,,A,]4 [A,,A,]2 | [D,A,]12 | [D,A,]2 [D,A,]2 [D,A,]2 [D,D]2 [D,D]2 [D,D]2 | %9
 [G,DG]4 [G,DG]2 [G,B,G]6 | [F,B,^D]2 [F,B,D]2 [F,B,D]2 [E,B,E]2 [E,B,E]2 [E,G,E]2 | %11
 [A,,A,]4 [A,,A,]2 .[D,A,D]6 | [G,,G,]2 [G,,G,]2 [G,,G,]2 [G,,G,]2 [G,,G,]2 [B,,G,]2 | %13
[M:7/4] [B,,G,]6 [C,G,]2 [C,G,]4 [C,G,]2 |[M:6/4] [D,G,D]2 [D,G,B,]2 [D,G,E]2 [D,G,D]4 [D,G,B,]2 | %15
 [D,F,C]6 [G,,G,]6 |] %16
V:3
 x12 | x12 | x12 | x12 | x12 | x12 | x12 | x12 | x12 | x12 | x12 | [^CA]4 [CG]2 z4 =C2 | x12 | %13
[M:7/4] x14 |[M:6/4] x12 | x12 |] %16

